X:1
T:Comin' Round The Mountain
Q:116
M:C|
L:1/4
K:A
DE \
|: "G"G2G>G | EDB,D | G2GF | G2GA |
   "G"B2B>B | dBAG | "D7"A2AB | A2dc |
   "G"B2B>B | AGGG | "C"E2E>E | AGFE |
   "D7"D2D>D | BAGF | "G"G2GF | G2DE :|
N:Sweets of May (Jacqueline & Dudley Laufman) pg 23 - abc by Peter Ostapenko.
N:Last update - PO 8/18/2007.
N:G Major
